src/components/Sprite/svg/earth.svg

<svg
  xmlns="http://www.w3.org/2000/svg"
  width="256"
  height="256"
  viewBox="0 0 256 256"
>
  <path
    d="M26 16h25.5c8.5 0 17 10 25.5 10s17-10 25.5-10 17-10 25.5-10 17 10 25.5 10 17 10 25.5 10 17-10 25.5-10H230c2.77 0 10 7.23 10 10v25.5c0 8.5 10 17 10 25.5s-10 17-10 25.5-10 17-10 25.5 10 17 10 25.5V179c0 8.5 10 17 10 25.5s-10 22.73-10 25.5c0 2.77-7.23 10-10 10h-25.5c-8.5 0-17 10-25.5 10s-17-10-25.5-10-17-10-25.5-10-17 10-25.5 10-17 10-25.5 10-17-10-25.5-10H26c-2.77 0-10-4.46-10-10v-25.5c0-8.5-10-17-10-25.5s10-17 10-25.5V128c0-8.5 10-17 10-25.5S16 85.5 16 77 6 60 6 51.5 16 26 16 26c0-5.54 7.23-10 10-10z"
    fill="#795548"
  />
  <circle cx="76" cy="148" r="24" fill="#6d4c41" />
  <circle cy="88" cx="188" r="12" fill="#6d4c41" />
  <circle cx="177" cy="186" r="28" fill="#6d4c41" />
  <circle cy="56" cx="84" r="16" fill="#6d4c41" />
</svg>

<?xml version="1.0" encoding="UTF-8" standalone="no"?>
<svg
  xmlns="http://www.w3.org/2000/svg"
  width="256"
  height="256"
  viewBox="0 0 256 256"
  version="1.1"
  id="svg8"
>
  <g id="layer1">
    <path
      id="rect910"
      style="
        fill: #795548;
        stroke: none;
        stroke-width: 0.944882;
        stroke-linecap: round;
        stroke-linejoin: round;
      "
      d="M 26,16 H 51.5 C 60,16 68.5,26 77,26 85.5,26 94,16 102.5,16 111,16 119.5,6 128,6 136.5,6 145,16 153.5,16 162,16 170.5,26 179,26 187.5,26 196,16 204.5,16 H 230 C 232.77,16 240,23.23 240,26 240,28.77 240,43 240,51.5 240,60 250,68.5 250,77 250,85.5 240,94 240,102.5 240,111 230,119.5 230,128 230,136.5 240,145 240,153.5 240,162 240,170.5 240,179 240,187.5 250,196 250,204.5 250,213 240,227.23 240,230 240,232.77 232.77,240 230,240 230,240 213,240 204.5,240 196,240 187.5,250 179,250 170.5,250 162,240 153.5,240 145,240 136.5,230 128,230 119.5,230 111,240 102.5,240 94,240 85.5,250 77,250 68.5,250 60,240 51.5,240 43,240 26,240 26,240 23.23,240 16,235.54 16,230 16,230 16,213 16,204.5 16,196 6,187.5 6,179 6,170.5 16,162 16,153.5 16,145 16,136.5 16,128 16,119.5 26,111 26,102.5 26,94 16,85.5 16,77 16,68.5 6,60 6,51.5 6,43 16,26 16,26 16,20.46 23.23,16 26,16 Z"
    />
    <circle
      style="
        fill: #6d4c41;
        stroke: none;
        stroke-width: 1.03078;
        stroke-linecap: round;
        stroke-linejoin: round;
      "
      id="path912"
      cx="76"
      cy="148"
      r="24"
    />
    <circle
      cy="88"
      cx="188"
      id="circle914"
      style="
        fill: #6d4c41;
        stroke: none;
        stroke-width: 0.51539;
        stroke-linecap: round;
        stroke-linejoin: round;
      "
      r="12"
    />
    <circle
      style="
        fill: #6d4c41;
        stroke: none;
        stroke-width: 1.20257;
        stroke-linecap: round;
        stroke-linejoin: round;
      "
      id="circle916"
      cx="177"
      cy="186"
      r="28"
    />
    <circle
      cy="56"
      cx="84"
      id="circle918"
      style="
        fill: #6d4c41;
        stroke: none;
        stroke-width: 0.687183;
        stroke-linecap: round;
        stroke-linejoin: round;
      "
      r="16"
    />
  </g>
</svg>
